X:110
T: Farewell to Eyrecourt
C: Martin Mulhaire
Z: B.Black
M: 4/4
L: 1/8
R: reel
K: Em
A, | B,EED EFGA | BE (3EDE B,EGE | D2 ^CE DEFG |\
AD D2 dBAF |
GEED EFGA | Beed efgf | efed BAFA | BEED E3 :|
A | Beed efga | bagf egfe | d^cdB ADFA | d^cdf afgf |
(3efe df efga | bagf egfe | (3d^cd fe dBAd |\
(3B^cd AF E3 :|
